X: 8187
T: Cooley's
R: reel
M: 4/4
K: Edorian
FD|:EBBA B2 EB|B2 AB dBAG|(3FED AD BDAD|FDFA dAFD|
EBBA B2 EB|B2 AB defg|afge dBAF|1 DEFD E2 FD:|2 DEFD E gfg||
|:eB (3BBB eBgB|eB (3BBB gedB|A2FA dAFB|ADFA Bcdf|
eB (3BBB eBgB|edBc defg|afge dBAF|1 DEFD E gfg:|2 DEFD E2 z2||

